X:18006
T:Rights of Man, The
R:Hornpipe
C:Trad.
O:Ireland
Z:Paul Hardy's Session Tunebook 2015 (see www.paulhardy.net). Creative Commons cc by-nc-sa licenced.
M:4/4
L:1/8
Q:1/4=120
K:Em
GA|"Em"Bc AB GA FG|EFGA B2ef|gfed edBd|"D"cBAG A2GA|
"Em"B2 AB GA FG|EFGA B2ef|gfed "Bm"Bgfg|"Em"e2 E2 E2:|
|:ga|"Em"bgbg efga|bgbg egfe|"D"d2 d^c defg|afdf a2 gf|
"Em"edef gfga|bgaf gfed|gfed "Bm"Bgfg|"Em"e2 E2 E2:|

